X:1
T:Gladstone
T:A.A. Gladstone [Edinburgh]
M:2/4
L:1/8
R:Reel
C:J. Scott Skinner
B:Monikie Series No. 2. (190?)
Z:AK/Fiddler's Companion
K:A
(d/|c/)A/d/B/ e/f/g/a/|A/4A/4A/ (c/A/) B/G/E/d/|c/A/d/B/ e/f/g/a/|e/c/d/B/ {G}AA/:||
g/|a/f/b/a/ g/e/a/g/|f/d/g/f/ e/c/f/e/|d/B/e/d/ c/A/d/c/|B/A/G/A/ B/e/f/g/|
a/f/b/a/ g/e/a/g/|f/d/g/f/ e/c/f/e/|d/B/e/d/ c/e/{g}a/f/|e/c/d/B/ {G}AA/|
|:(d/|c/)A/d/B/ e/f/g/a/|A/4A/4A/ (c/A/) B/G/E/d/|c/A/d/B/ e/f/g/a/|e/c/d/B/ AA/:||
g/|a/4a/4a/ (f/a/) g/4g/4a/ (e/g/)|f/4f/4f/ (d/f/) e/4e/4e/ (c/e/)|d/4d/4d/ (B/d/) c/4c/4c/ (A/c/)|.B/.A/.G/.A/ .B/.e/.f/.g/|
.a/.f/.b/.a/ .g/.b/.e/.g/|f/d/a/f/ e/a/c/e/|d/B/e/d/ c/e/A/a/|e/c/d/B/ {G}AA/||
'A' AND 'D' COTILLION. Rounder 0436, Art Galbraith - "Traditional Fiddle Music of the Ozarks, vol. 2: On the Springfield Plain."
'A' AND 'E' RAG. AKA - "Buck Fever." Old‑Time, Reel. USA, Missouri. A Major ('A' part) & E Major ('B' part). Standard tuning. AABB. According to Drew Beisswenger (2008), "Buck Fever" was source Lonnie Robertson's alternate title for the tune. Beisswenger notes a good deal of musical similarity with the Kentucky tune "Old Flannigan," both having a second strain close to "Old Mother Flannigan," with a first strain that is shared with "Saratoga Hornpipe [3]" and a number of other related melodies (see note for "Saratoga Hornpipe"). Source for notated version: Lonnie Robertson (1908-1981, Springfield, Mo.) [Beisswenger & McCann]. Beisswenger & McCann (Ozark Fiddle Music), 2008; pg. 114. Sanella (Balance and Swing). Caney Mountain Records CEP 102 (privately issued extended play LP), Lonnie Robertson (Mo.), c. 1965‑66. Rounder CD0375, Lonnie Robertson - "Lonnie's Breakdown" (1965).
See also listing at:
Jane Keefer's Folk Music Index: An Index to Recorded Sources
..........................
'A' AND 'E' WALTZ. American, Canadian; Waltz (9/8 or 3/4 time). A Major ('A' part) & E Major ('B' part). Standard tuning. AB (Phillips, Silberberg): ABCA'B'C' {part 'C' is a variation of 'A' played at the octave} (Gibbons). "A and E Waltz" is one of the '100 essential Missouri fiddle tunes' according to Missouri fiddler Charlie Walden. It has been attributed to Rusty Modrell, without verification. Sources for notated versions: Arthur Lindstrom (British Columbia), who learned it during a fiddle contest in Weiser, Idaho in 1970 [Gibbons]; Vivian Williams [Silberberg]. Source for notated version: Lloyd Wanzer [Phillips]. Gibbons (As It Comes: Folk Fiddling From Prince George, British Columbia), 1982; No. 8, pgs. 22‑24. Phillips (Traditional American Fiddle Tunes), vol. 2, 1995; pg. 236. Silberberg (Tunes I Learned at Tractor Tavern), 2002, pg 1.
..............

